_src/_includes/img/icons/payment-methods/amex.svg

<svg height="471" viewBox="0 0 750 471" width="750" xmlns="http://www.w3.org/2000/svg"><g fill="none"><rect fill="#2557d6" height="471" rx="40" width="750"/><g fill="#fff"><path d="m.002688 221.18508h36.024161l8.12273-19.51002h18.185017l8.101446 19.51002h70.880328v-14.91599l6.32685 14.97957h36.79572l6.32685-15.20212v15.13854h176.15122l-.0825-32.02567h3.40819c2.38654.0822 3.0836.30203 3.0836 4.22575v27.79992h91.10602v-7.45535c7.3485 3.92107 18.77832 7.45535 33.81854 7.45535h38.32822l8.20255-19.51002h18.18501l8.02164 19.51002h73.86016v-18.53239l11.18506 18.53239h59.18711v-122.50719h-58.57518v14.46825l-8.20255-14.46825h-60.10501v14.46825l-7.53208-14.46825h-81.1874c-13.59021 0-25.53618 1.88901-35.18607 7.15332v-7.15332h-56.02636v7.15332c-6.1406-5.42592-14.5081-7.15332-23.81213-7.15332h-204.68587l-13.73389 31.64151-14.1037-31.64151h-64.471v14.46825l-7.082446-14.46825h-54.983406l-25.533521 58.24656v64.26063h.0026zm227.396882-17.67072h-21.61485l-.0798-68.79372-30.57264 68.79372h-18.51228l-30.65246-68.85466v68.85466h-42.883113l-8.101446-19.59214h-43.899457l-8.183924 19.59214h-22.899553l37.756194-87.83744h31.325589l35.8592 83.16394v-83.16394h34.41186l27.5928 59.58714 25.34728-59.58714h35.1036v87.83744zm-159.622356-37.82149-14.430949-35.01681-14.348471 35.01681zm245.642256 37.82149h-70.43336v-87.83744h70.43336v18.29129h-49.34831v15.83269h48.16435v18.00516h-48.16435v17.54153h49.34831zm99.25581-64.18115c0 14.00461-9.38651 21.24005-14.85665 23.41254 4.61343 1.74859 8.55374 4.83776 10.42945 7.39706 2.97717 4.36883 3.49067 8.27135 3.49067 16.11616v17.25539h-21.26597l-.0798-11.07704c0-5.28552.50817-12.88658-3.32838-17.11233-3.08094-3.08918-7.77686-3.75947-15.36746-3.75947h-22.63351v31.94884h-21.08238v-87.83744h48.49427c10.77532 0 18.71447.28348 25.53087 4.20721 6.67005 3.92373 10.6689 9.65168 10.6689 19.44908zm-26.65251 13.04311c-2.89737 1.75124-6.32418 1.80952-10.42944 1.80952h-25.61335v-19.51001h25.96188c3.67425 0 7.50813.16427 9.99843 1.58433 2.73507 1.27965 4.4272 4.00321 4.4272 7.76532 0 3.83895-1.60965 6.92813-4.34472 8.35084zm60.46631 51.13804h-21.51339v-87.83744h21.51339zm249.73948 0h-29.87824l-39.96447-65.92709v65.92709h-42.93898l-8.20521-19.59214h-43.79835l-7.96044 19.59214h-24.6715c-10.24853 0-23.22415-2.25727-30.57265-9.71527-7.40969-7.45799-11.26486-17.56006-11.26486-33.53316 0-13.02698 2.30405-24.93593 11.36597-34.34652 6.81638-7.01025 17.49061-10.24249 32.01999-10.24249h20.41192v18.82117h-19.98356c-7.69438 0-12.03909 1.13924-16.22418 5.20338-3.59443 3.69853-6.06078 10.69024-6.06078 19.89682 0 9.41058 1.87836 16.19564 5.79739 20.62804 3.24589 3.47599 9.14439 4.53044 14.69434 4.53044h9.46898l29.71594-69.0772h31.59165l35.69691 83.08181v-83.08181h32.10247l37.0618 61.17411v-61.17411h21.59586zm-128.15805-37.82149-14.59058-35.01681-14.51077 35.01681z"/><path d="m749.95644 343.76716c-5.12159 7.458-15.1014 11.23866-28.6118 11.23866h-40.71741v-18.83972h40.55246c4.02279 0 6.83767-.52723 8.53246-2.17514 1.46864-1.35913 2.49295-3.33292 2.49295-5.7306 0-2.55929-1.02431-4.59137-2.57543-5.81008-1.52983-1.34059-3.75673-1.94995-7.42832-1.94995-19.79733-.67028-44.49543.60936-44.49543-27.19319 0-12.74351 8.12539-26.15731 30.25072-26.15731h41.99715l.00265-17.48058h-39.02262c-11.7757 0-20.32944 2.80834-26.38756 7.1745v-7.1745h-57.71582c-9.22953 0-20.06338 2.27846-25.18765 7.1745v-7.1745h-103.06528v7.1745c-8.20255-5.89221-22.04285-7.1745-28.43088-7.1745h-67.98297v7.1745c-6.48914-6.25782-20.92009-7.1745-29.71594-7.1745h-76.08442l-17.41078 18.76288-16.30666-18.76288h-113.65437v122.59196h111.51527l17.94024-19.05962 16.89997 19.05962 68.73857.0609v-28.83847h6.75785c9.12045.14041 19.87715-.22519 29.3674-4.31053v33.08541h56.69683v-31.95148h2.73506c3.49068 0 3.83389.14307 3.83389 3.6164v28.33243h172.23487c10.93495 0 22.36477-2.78714 28.69427-7.8448v7.8448h54.63221c11.36864 0 22.47121-1.58698 30.91852-5.65112v-22.83763zm-341.50343-47.1545c0 24.40606-18.28612 29.44518-36.71591 29.44518h-26.30775v29.46901h-40.9808l-25.96188-29.08486-26.98087 29.08486h-83.5154v-87.85863h84.80046l25.94058 28.79872 26.81858-28.79872h67.37104c16.73234 0 35.53195 4.61256 35.53195 28.94444zm-167.6252 40.43389h-51.83861v-17.48059h46.28865v-17.92568h-46.28865v-15.9731h52.86027l23.06185 25.60359zm83.52669 10.06013-32.3712-35.78778 32.3712-34.6512zm47.8727-39.06551h-27.24693v-22.37399h27.4917c7.61191 0 12.8958 3.08918 12.8958 10.77238 0 7.5984-5.03912 11.60161-13.14057 11.60161zm142.74333-40.37302h70.36951v18.16949h-49.37226v15.9731h48.16702v17.92568h-48.16702v17.48059l49.37226.0794v18.23037h-70.36951zm-27.05329 47.02915c4.69325 1.72475 8.52979 4.81657 10.32835 7.37587 2.97717 4.28934 3.40819 8.29254 3.49332 16.03668v17.417h-21.16751v-10.99227c0-5.2855.51083-13.11176-3.4082-17.1971-3.08094-3.14746-7.77685-3.89988-15.46857-3.89988h-22.5324v32.08925h-21.18614v-87.85863h48.67784c10.67423 0 18.44843.46894 25.36858 4.14627 6.65409 4.00321 10.83917 9.48742 10.83917 19.51001-.003 14.02315-9.39449 21.17912-14.94444 23.3728zm-11.91825-11.10708c-2.8202 1.66646-6.30822 1.80953-10.41082 1.80953h-25.61334v-19.73257h25.96187c3.75407 0 7.5108.0794 10.06229 1.58698 2.73241 1.42271 4.366 4.14363 4.366 7.90309 0 3.75947-1.63359 6.78771-4.366 8.43297zm190.3364 5.59638c4.10528 4.23106 6.30556 9.5722 6.30556 18.61452 0 18.90066-11.85817 27.72308-33.12147 27.72308h-41.06595v-18.83971h40.901c3.99884 0 6.83501-.52723 8.61227-2.17515 1.45001-1.35913 2.49029-3.33291 2.49029-5.73059 0-2.55931-1.12542-4.59137-2.57276-5.81009-1.61232-1.34059-3.83655-1.94994-7.50814-1.94994-19.71751-.67029-44.41029.60935-44.41029-27.19321 0-12.7435 8.04025-26.15729 30.14429-26.15729h42.26853v18.6993h-38.67676c-3.83387 0-6.32684.14307-8.44732 1.58698-2.30937 1.42271-3.16608 3.53426-3.16608 6.3214 0 3.31438 1.96085 5.569 4.61344 6.54397 2.22424.77097 4.61343.99616 8.2052.99616l11.35002.30468c11.44578.27818 19.30245 2.24932 24.07817 7.06589zm83.66461-23.51942h-38.42665c-3.83655 0-6.38538.14307-8.53247 1.58698-2.22423 1.42271-3.08093 3.53427-3.08093 6.32142 0 3.31436 1.87836 5.56898 4.61076 6.54395 2.22424.77097 4.61344.99617 8.12539.99617l11.42717.30468c11.53092.28349 19.22796 2.25727 23.92121 7.07119.85404.67029 1.36754 1.42271 1.95552 2.17513z"/></g></g></svg>

<svg width="750" height="471" viewBox="0 0 750 471" version="1.1" xmlns="http://www.w3.org/2000/svg" xmlns:xlink="http://www.w3.org/1999/xlink">
    <!-- Generator: Sketch 48.2 (47327) - http://www.bohemiancoding.com/sketch -->
    <desc>Created with Sketch.</desc>
    <defs></defs>
    <g id="Page-1" stroke="none" stroke-width="1" fill="none" fill-rule="evenodd">
        <g id="amex" fill-rule="nonzero">
            <rect id="Rectangle-1" fill="#2557D6" x="0" y="0" width="750" height="471" rx="40"></rect>
            <path d="M0.002688,221.18508 L36.026849,221.18508 L44.149579,201.67506 L62.334596,201.67506 L70.436042,221.18508 L141.31637,221.18508 L141.31637,206.26909 L147.64322,221.24866 L184.43894,221.24866 L190.76579,206.04654 L190.76579,221.18508 L366.91701,221.18508 L366.83451,189.15941 L370.2427,189.15941 C372.62924,189.24161 373.3263,189.46144 373.3263,193.38516 L373.3263,221.18508 L464.43232,221.18508 L464.43232,213.72973 C471.78082,217.6508 483.21064,221.18508 498.25086,221.18508 L536.57908,221.18508 L544.78163,201.67506 L562.96664,201.67506 L570.98828,221.18508 L644.84844,221.18508 L644.84844,202.65269 L656.0335,221.18508 L715.22061,221.18508 L715.22061,98.67789 L656.64543,98.67789 L656.64543,113.14614 L648.44288,98.67789 L588.33787,98.67789 L588.33787,113.14614 L580.80579,98.67789 L499.61839,98.67789 C486.02818,98.67789 474.08221,100.5669 464.43232,105.83121 L464.43232,98.67789 L408.40596,98.67789 L408.40596,105.83121 C402.26536,100.40529 393.89786,98.67789 384.59383,98.67789 L179.90796,98.67789 L166.17407,130.3194 L152.07037,98.67789 L87.59937,98.67789 L87.59937,113.14614 L80.516924,98.67789 L25.533518,98.67789 L-2.99999999e-06,156.92445 L-2.99999999e-06,221.18508 L0.002597,221.18508 L0.002688,221.18508 Z M227.39957,203.51436 L205.78472,203.51436 L205.70492,134.72064 L175.13228,203.51436 L156.62,203.51436 L125.96754,134.6597 L125.96754,203.51436 L83.084427,203.51436 L74.982981,183.92222 L31.083524,183.92222 L22.8996,203.51436 L4.7e-05,203.51436 L37.756241,115.67692 L69.08183,115.67692 L104.94103,198.84086 L104.94103,115.67692 L139.35289,115.67692 L166.94569,175.26406 L192.29297,115.67692 L227.39657,115.67692 L227.39657,203.51436 L227.39957,203.51436 Z M67.777214,165.69287 L53.346265,130.67606 L38.997794,165.69287 L67.777214,165.69287 Z M313.41947,203.51436 L242.98611,203.51436 L242.98611,115.67692 L313.41947,115.67692 L313.41947,133.96821 L264.07116,133.96821 L264.07116,149.8009 L312.23551,149.8009 L312.23551,167.80606 L264.07116,167.80606 L264.07116,185.34759 L313.41947,185.34759 L313.41947,203.51436 Z M412.67528,139.33321 C412.67528,153.33782 403.28877,160.57326 397.81863,162.74575 C402.43206,164.49434 406.37237,167.58351 408.24808,170.14281 C411.22525,174.51164 411.73875,178.41416 411.73875,186.25897 L411.73875,203.51436 L390.47278,203.51436 L390.39298,192.43732 C390.39298,187.1518 390.90115,179.55074 387.0646,175.32499 C383.98366,172.23581 379.28774,171.56552 371.69714,171.56552 L349.06363,171.56552 L349.06363,203.51436 L327.98125,203.51436 L327.98125,115.67692 L376.47552,115.67692 C387.25084,115.67692 395.18999,115.9604 402.00639,119.88413 C408.67644,123.80786 412.67529,129.53581 412.67529,139.33321 L412.67528,139.33321 Z M386.02277,152.37632 C383.1254,154.12756 379.69859,154.18584 375.59333,154.18584 L349.97998,154.18584 L349.97998,134.67583 L375.94186,134.67583 C379.61611,134.67583 383.44999,134.8401 385.94029,136.26016 C388.67536,137.53981 390.36749,140.26337 390.36749,144.02548 C390.36749,147.86443 388.75784,150.95361 386.02277,152.37632 Z M446.48908,203.51436 L424.97569,203.51436 L424.97569,115.67692 L446.48908,115.67692 L446.48908,203.51436 Z M696.22856,203.51436 L666.35032,203.51436 L626.38585,137.58727 L626.38585,203.51436 L583.44687,203.51436 L575.24166,183.92222 L531.44331,183.92222 L523.48287,203.51436 L498.81137,203.51436 C488.56284,203.51436 475.58722,201.25709 468.23872,193.79909 C460.82903,186.3411 456.97386,176.23903 456.97386,160.26593 C456.97386,147.23895 459.27791,135.33 468.33983,125.91941 C475.15621,118.90916 485.83044,115.67692 500.35982,115.67692 L520.77174,115.67692 L520.77174,134.49809 L500.78818,134.49809 C493.0938,134.49809 488.74909,135.63733 484.564,139.70147 C480.96957,143.4 478.50322,150.39171 478.50322,159.59829 C478.50322,169.00887 480.38158,175.79393 484.30061,180.22633 C487.5465,183.70232 493.445,184.75677 498.99495,184.75677 L508.46393,184.75677 L538.17987,115.67957 L569.77152,115.67957 L605.46843,198.76138 L605.46843,115.67957 L637.5709,115.67957 L674.6327,176.85368 L674.6327,115.67957 L696.22856,115.67957 L696.22856,203.51436 Z M568.07051,165.69287 L553.47993,130.67606 L538.96916,165.69287 L568.07051,165.69287 Z" id="Path" fill="#FFFFFF"></path>
            <path d="M749.95644,343.76716 C744.83485,351.22516 734.85504,355.00582 721.34464,355.00582 L680.62723,355.00582 L680.62723,336.1661 L721.17969,336.1661 C725.20248,336.1661 728.01736,335.63887 729.71215,333.99096 C731.18079,332.63183 732.2051,330.65804 732.2051,328.26036 C732.2051,325.70107 731.18079,323.66899 729.62967,322.45028 C728.09984,321.10969 725.87294,320.50033 722.20135,320.50033 C702.40402,319.83005 677.70592,321.10969 677.70592,293.30714 C677.70592,280.56363 685.83131,267.14983 707.95664,267.14983 L749.95379,267.14983 L749.95644,249.66925 L710.93382,249.66925 C699.15812,249.66925 690.60438,252.47759 684.54626,256.84375 L684.54626,249.66925 L626.83044,249.66925 C617.60091,249.66925 606.76706,251.94771 601.64279,256.84375 L601.64279,249.66925 L498.57751,249.66925 L498.57751,256.84375 C490.37496,250.95154 476.53466,249.66925 470.14663,249.66925 L402.16366,249.66925 L402.16366,256.84375 C395.67452,250.58593 381.24357,249.66925 372.44772,249.66925 L296.3633,249.66925 L278.95252,268.43213 L262.64586,249.66925 L148.99149,249.66925 L148.99149,372.26121 L260.50676,372.26121 L278.447,353.20159 L295.34697,372.26121 L364.08554,372.32211 L364.08554,343.48364 L370.84339,343.48364 C379.96384,343.62405 390.72054,343.25845 400.21079,339.17311 L400.21079,372.25852 L456.90762,372.25852 L456.90762,340.30704 L459.64268,340.30704 C463.13336,340.30704 463.47657,340.45011 463.47657,343.92344 L463.47657,372.25587 L635.71144,372.25587 C646.64639,372.25587 658.07621,369.46873 664.40571,364.41107 L664.40571,372.25587 L719.03792,372.25587 C730.40656,372.25587 741.50913,370.66889 749.95644,366.60475 L749.95644,343.76712 L749.95644,343.76716 Z M408.45301,296.61266 C408.45301,321.01872 390.16689,326.05784 371.7371,326.05784 L345.42935,326.05784 L345.42935,355.52685 L304.44855,355.52685 L278.48667,326.44199 L251.5058,355.52685 L167.9904,355.52685 L167.9904,267.66822 L252.79086,267.66822 L278.73144,296.46694 L305.55002,267.66822 L372.92106,267.66822 C389.6534,267.66822 408.45301,272.28078 408.45301,296.61266 Z M240.82781,337.04655 L188.9892,337.04655 L188.9892,319.56596 L235.27785,319.56596 L235.27785,301.64028 L188.9892,301.64028 L188.9892,285.66718 L241.84947,285.66718 L264.91132,311.27077 L240.82781,337.04655 Z M324.3545,347.10668 L291.9833,311.3189 L324.3545,276.6677 L324.3545,347.10668 Z M372.2272,308.04117 L344.98027,308.04117 L344.98027,285.66718 L372.47197,285.66718 C380.08388,285.66718 385.36777,288.75636 385.36777,296.43956 C385.36777,304.03796 380.32865,308.04117 372.2272,308.04117 Z M514.97053,267.66815 L585.34004,267.66815 L585.34004,285.83764 L535.96778,285.83764 L535.96778,301.81074 L584.1348,301.81074 L584.1348,319.73642 L535.96778,319.73642 L535.96778,337.21701 L585.34004,337.29641 L585.34004,355.52678 L514.97053,355.52678 L514.97053,267.66815 Z M487.91724,314.6973 C492.61049,316.42205 496.44703,319.51387 498.24559,322.07317 C501.22276,326.36251 501.65378,330.36571 501.73891,338.10985 L501.73891,355.52685 L480.5714,355.52685 L480.5714,344.53458 C480.5714,339.24908 481.08223,331.42282 477.1632,327.33748 C474.08226,324.19002 469.38635,323.4376 461.69463,323.4376 L439.16223,323.4376 L439.16223,355.52685 L417.97609,355.52685 L417.97609,267.66822 L466.65393,267.66822 C477.32816,267.66822 485.10236,268.13716 492.02251,271.81449 C498.6766,275.8177 502.86168,281.30191 502.86168,291.3245 C502.85868,305.34765 493.46719,312.50362 487.91724,314.6973 Z M475.99899,303.59022 C473.17879,305.25668 469.69077,305.39975 465.58817,305.39975 L439.97483,305.39975 L439.97483,285.66718 L465.9367,285.66718 C469.69077,285.66718 473.4475,285.74658 475.99899,287.25416 C478.7314,288.67687 480.36499,291.39779 480.36499,295.15725 C480.36499,298.91672 478.7314,301.94496 475.99899,303.59022 Z M666.33539,309.1866 C670.44067,313.41766 672.64095,318.7588 672.64095,327.80112 C672.64095,346.70178 660.78278,355.5242 639.51948,355.5242 L598.45353,355.5242 L598.45353,336.68449 L639.35453,336.68449 C643.35337,336.68449 646.18954,336.15726 647.9668,334.50934 C649.41681,333.15021 650.45709,331.17643 650.45709,328.77875 C650.45709,326.21944 649.33167,324.18738 647.88433,322.96866 C646.27201,321.62807 644.04778,321.01872 640.37619,321.01872 C620.65868,320.34843 595.9659,321.62807 595.9659,293.82551 C595.9659,281.08201 604.00615,267.66822 626.11019,267.66822 L668.37872,267.66822 L668.37872,286.36752 L629.70196,286.36752 C625.86809,286.36752 623.37512,286.51059 621.25464,287.9545 C618.94527,289.37721 618.08856,291.48876 618.08856,294.2759 C618.08856,297.59028 620.04941,299.8449 622.702,300.81987 C624.92624,301.59084 627.31543,301.81603 630.9072,301.81603 L642.25722,302.12071 C653.703,302.39889 661.55967,304.37003 666.33539,309.1866 Z M750,285.66718 L711.57335,285.66718 C707.7368,285.66718 705.18797,285.81025 703.04088,287.25416 C700.81665,288.67687 699.95995,290.78843 699.95995,293.57558 C699.95995,296.88994 701.83831,299.14456 704.57071,300.11953 C706.79495,300.8905 709.18415,301.1157 712.6961,301.1157 L724.12327,301.42038 C735.65419,301.70387 743.35123,303.67765 748.04448,308.49157 C748.89852,309.16186 749.41202,309.91428 750,310.6667 L750,285.66718 Z" id="path13" fill="#FFFFFF"></path>
        </g>
    </g>
</svg>
